X: 7358
T: Cliffs Of Moher, The
R: jig
M: 6/8
K: Adorian
|:a2a bag|eaf ged|c2A BAG|EFG ABd|
eaa bag|eaf ged|1 c2A BAG|EFG A2a:|2 cde dcA|EFG ABd||
|:e2e dBA|e=fe dBA|GAB dBA|GAB d3|
[1 e2e dBA|e=fe dBA|GAB dBG|BAG A2d:|
[2 e2e dee|cee Bee|EFG BAG|EFG A2a||

